src/assets/icons/excel-icon.svg

<?xml version="1.0" encoding="UTF-8" standalone="no"?>
<svg
   xmlns:dc="http://purl.org/dc/elements/1.1/"
   xmlns:cc="http://creativecommons.org/ns#"
   xmlns:rdf="http://www.w3.org/1999/02/22-rdf-syntax-ns#"
   xmlns:svg="http://www.w3.org/2000/svg"
   xmlns="http://www.w3.org/2000/svg"
   xmlns:xlink="http://www.w3.org/1999/xlink"
   xmlns:sodipodi="http://sodipodi.sourceforge.net/DTD/sodipodi-0.dtd"
   xmlns:inkscape="http://www.inkscape.org/namespaces/inkscape"
   version="1.1"
   width="192.026"
   height="192.026"
   viewBox="0 0 192.026 192.026"
   style="overflow:visible;enable-background:new 0 0 192.026 192.026;"
   xml:space="preserve"
   id="svg3933"
   inkscape:version="0.48.3.1 r9886"
   sodipodi:docname="Microsoft_Excel_Logo2.svg"><metadata
   id="metadata3941"><rdf:RDF><cc:Work
       rdf:about=""><dc:format>image/svg+xml</dc:format><dc:type
         rdf:resource="http://purl.org/dc/dcmitype/StillImage" /></cc:Work></rdf:RDF></metadata><defs
   id="defs3939"><linearGradient
     id="linearGradient4558"><stop
       style="stop-color:#237f4c;stop-opacity:1;"
       offset="0"
       id="stop4560" /><stop
       style="stop-color:#1e6c41;stop-opacity:1;"
       offset="1"
       id="stop4562" /></linearGradient><radialGradient
     inkscape:collect="always"
     xlink:href="#linearGradient4558"
     id="radialGradient4564"
     cx="24.183311"
     cy="95.734375"
     fx="24.183311"
     fy="95.734375"
     r="52.1875"
     gradientTransform="matrix(1.2947718,0,0,2.4873889,-26.649448,-142.39425)"
     gradientUnits="userSpaceOnUse" /></defs><sodipodi:namedview
   pagecolor="#ffffff"
   bordercolor="#666666"
   borderopacity="1"
   objecttolerance="10"
   gridtolerance="10"
   guidetolerance="10"
   inkscape:pageopacity="0"
   inkscape:pageshadow="2"
   inkscape:window-width="1268"
   inkscape:window-height="987"
   id="namedview3937"
   showgrid="false"
   inkscape:zoom="1"
   inkscape:cx="161.97994"
   inkscape:cy="298.46005"
   inkscape:window-x="723"
   inkscape:window-y="130"
   inkscape:window-maximized="0"
   inkscape:current-layer="svg3933" />
<rect
   style="fill:#ffffff;fill-opacity:1;stroke:none"
   id="rect4556"
   width="171.5"
   height="134.5"
   x="13.5"
   y="28.026001"
   ry="3.375" /><g
   id="use3985"
   transform="translate(0,87.031249)"><path
     id="rect3991"
     style="fill:#1f7144;fill-opacity:1;stroke:none"
     d="m 104.26889,44.255993 29.25267,0 0,15.026711 -29.25267,0 z m 35.25,0 29.25267,0 0,14.995461 -29.25267,0 z m -35.25,-21.78125 29.25267,0 0,15.745461 -29.25267,0 z m 35.25,0 29.25267,0 0,15.745461 -29.25267,0 z m -35.25,-21.749999 29.25267,0 0,15.745461 -29.25267,0 z m 35.25,0 29.25267,0 0,15.745461 -29.25267,0 z m -35.25,-21.75 29.25267,0 0,15.745461 -29.25267,0 z m 35.25,0 29.25267,0 0,15.745461 -29.25267,0 z m -35.25,-21.75 29.25267,0 0,15.745461 -29.25267,0 z m 35.25,0 29.25267,0 0,15.745461 -29.25267,0 z M 103.25,-60.749999 l 0,5.96875 78.28125,0 0,126.78125 -78.28125,0 0,6 77.78125,0 c 3.60618,0 6.53125,-2.92507 6.53125,-6.53125 l 0,-125.6875 c 0,-3.606183 -2.92507,-6.53125 -6.53125,-6.53125 l -77.78125,0 z" /></g><path
   style="fill:url(#radialGradient4564);stroke:none;stroke-width:1px;stroke-linecap:butt;stroke-linejoin:miter;stroke-opacity:1;opacity:1;fill-opacity:1"
   d="M 108.84375 9.0625 L 4.46875 27.625 L 4.46875 163.5625 L 108.78125 182.40625 L 108.84375 9.0625 z M 75.46875 65 L 60.53125 95.71875 L 75.875 126.625 L 62 125.8125 L 52.875 103.1875 L 43.9375 124.78125 L 31.71875 124.09375 L 46.0625 95.71875 L 32.4375 67.03125 L 45.65625 66.40625 L 53.34375 87.3125 L 62.59375 65.59375 L 75.46875 65 z "
   id="path3945" />
<g
   id="g3973" /><g
   id="use3977"
   transform="translate(0,21.75)" /><g
   id="use3981"
   transform="translate(0,43.5)" /><g
   id="use3983"
   transform="translate(0,65.249999)" /></svg>

<?xml version="1.0" encoding="UTF-8"?>
<svg width="192.03" height="192.03" enable-background="new 0 0 192.026 192.026" version="1.1" viewBox="0 0 192.026 192.026" xmlSpace="preserve" xmlns="http://www.w3.org/2000/svg" xmlnsCc="http://creativecommons.org/ns#" xmlnsDc="http://purl.org/dc/elements/1.1/" xmlnsRdf="http://www.w3.org/1999/02/22-rdf-syntax-ns#" xmlnsXlink="http://www.w3.org/1999/xlink"><metadata><rdfRDF><ccWork rdfAbout=""><dcFormat>image/svg+xml</dcFormat><dcType rdfResource="http://purl.org/dc/dcmitype/StillImage"/></ccWork></rdfRDF></metadata><defs><radialGradient id="a" cx="24.183" cy="95.734" r="52.188" gradientTransform="matrix(1.2948 0 0 2.4874 -26.649 -142.39)" gradientUnits="userSpaceOnUse"><stop stop-color="#237f4c" offset="0"/><stop stop-color="#1e6c41" offset="1"/></radialGradient></defs>
<rect x="13.5" y="28.026" width="171.5" height="134.5" ry="3.375" fill="#fff"/><g transform="translate(0 87.031)"><path d="m104.27 44.256h29.253v15.027h-29.253zm35.25 0h29.253v14.995h-29.253zm-35.25-21.781h29.253v15.745h-29.253zm35.25 0h29.253v15.745h-29.253zm-35.25-21.75h29.253v15.745h-29.253zm35.25 0h29.253v15.745h-29.253zm-35.25-21.75h29.253v15.745h-29.253zm35.25 0h29.253v15.745h-29.253zm-35.25-21.75h29.253v15.745h-29.253zm35.25 0h29.253v15.745h-29.253zm-36.269-17.975v5.9688h78.281v126.78h-78.281v6h77.781c3.6062 0 6.5312-2.9251 6.5312-6.5312v-125.69c0-3.6062-2.9251-6.5312-6.5312-6.5312h-77.781z" fill="#1f7144"/></g><path d="m108.84 9.0625l-104.38 18.562v135.94l104.31 18.844 0.0625-173.34zm-33.375 55.938l-14.938 30.719 15.344 30.906-13.875-0.8125-9.125-22.625-8.9375 21.594-12.219-0.6875 14.344-28.375-13.625-28.688 13.219-0.625 7.6875 20.906 9.25-21.719 12.875-0.59375z" fill="url(#a)"/>
</svg>
